!!!OTL: Abschied beim Wegzuge
!!!SCT: A0267
!!!YEM: Copyright 1995, estate of Helmut Schaffrath.
**kern
*ICvox
*Ivox
*M4/4
*k[b-]
*d:
{4d
=1
4.d
8e
4fn
4e
=2
2d
4cn}
{4A
=3
4d
4e
4fn
8e
8d
=4
2e
4r}
{4d
=5
4e
4fn
4g
4e
=6
2fn
4e}
{4d
=7
4c#
4d
4d
4c#
=8
2d
4r}
==
!!!AGN: Romanze, Ballade, Lied
!! M Franck Fasc. quodl. 1611 No. 6.
!!!ONB: ESAC (Essen Associative Code) Database: ALTDEU
!!!AMT: simple quadruple
!!!AIN: vox
!!!EED: Helmut Schaffrath
!!!EEV: 1.0
*-
